build/category/LibraryAuditorOutline.svg

<svg xmlns="http://www.w3.org/2000/svg" fill="none" viewBox="0 0 24 24" focusable="false"><path d="M0 0H24V24H0z"/><path fill="#74767B" fill-rule="evenodd" d="M8.62559 4.01733C6.60975 4.01733 4.97559 5.65149 4.97559 7.66733L4.97559 17.0101L4.97559 17.012L4.97559 17.016C4.97559 18.667 6.31393 20.0053 7.96486 20.0053L10.8651 20.0053C11.2241 20.0053 11.5151 19.7143 11.5151 19.3553C11.5151 18.9963 11.2241 18.7053 10.8651 18.7053L7.96486 18.7053C7.0319 18.7053 6.27559 17.949 6.27559 17.016C6.27559 16.0831 7.0319 15.3268 7.96487 15.3268L12.9594 15.3268C13.3184 15.3268 13.6094 15.0357 13.6094 14.6768C13.6094 14.3178 13.3184 14.0268 12.9594 14.0268L7.96487 14.0268C7.33798 14.0268 6.75617 14.2197 6.27559 14.5495L6.27559 7.66733C6.27559 6.36946 7.32772 5.31733 8.62559 5.31733L15.3746 5.31733C16.6725 5.31733 17.7246 6.36946 17.7246 7.66733L17.7246 13.1506C17.7246 13.5096 18.0156 13.8006 18.3746 13.8006C18.7336 13.8006 19.0246 13.5096 19.0246 13.1506L19.0246 7.66733C19.0246 5.65149 17.3904 4.01733 15.3746 4.01733L8.62559 4.01733ZM8.84141 6.99438C8.48242 6.99438 8.19141 7.2854 8.19141 7.64438C8.19141 8.00337 8.48242 8.29438 8.84141 8.29438L15.1587 8.29438C15.5177 8.29438 15.8087 8.00337 15.8087 7.64438C15.8087 7.2854 15.5177 6.99438 15.1587 6.99438L8.84141 6.99438ZM8.19141 10.2369C8.19141 9.87793 8.48242 9.58691 8.84141 9.58691L15.1587 9.58691C15.5177 9.58691 15.8087 9.87793 15.8087 10.2369C15.8087 10.5959 15.5177 10.8869 15.1587 10.8869L8.84141 10.8869C8.48242 10.8869 8.19141 10.5959 8.19141 10.2369ZM21.5453 17.2667C22.1279 17.9944 22.1211 19.0015 21.5344 19.726C20.7173 20.735 19.3025 22 17.3449 22C15.3839 22 13.9713 20.7305 13.1579 19.7206C12.5763 18.9985 12.5694 17.9975 13.147 17.2722C13.9501 16.2634 15.3536 14.9999 17.3449 14.9999C19.3327 14.9999 20.7384 16.2589 21.5453 17.2667ZM20.5241 18.9079C19.7936 19.8099 18.712 20.7 17.3449 20.7C15.9763 20.7 14.8972 19.8075 14.1703 18.9051C13.9672 18.6529 13.9687 18.3272 14.164 18.0819C14.8728 17.1917 15.9424 16.2999 17.3449 16.2999C18.7458 16.2999 19.818 17.1892 20.5305 18.0791C20.7279 18.3258 20.7295 18.6543 20.5241 18.9079ZM17.3746 19.5242C17.9269 19.5242 18.3746 19.0765 18.3746 18.5242C18.3746 17.9719 17.9269 17.5242 17.3746 17.5242C16.8223 17.5242 16.3746 17.9719 16.3746 18.5242C16.3746 19.0765 16.8223 19.5242 17.3746 19.5242Z"/></svg>

<svg xmlns="http://www.w3.org/2000/svg" fill="none" viewBox="0 0 24 24" focusable="false"><path fill="#74767B" fill-rule="evenodd" d="M4.97 7.66c0-2.01 1.63-3.65 3.65-3.65h6.75c2.02 0 3.65 1.64 3.65 3.65v5.49c0 .35-.29.65-.65.65s-.65-.3-.65-.65V7.66c0-1.3-1.05-2.35-2.35-2.35H8.62c-1.3 0-2.35 1.05-2.35 2.35v6.88c.48-.33 1.06-.52 1.69-.52h4.99c.36 0 .65.29.65.65s-.29.65-.65.65H7.96c-.93 0-1.69.76-1.69 1.69s.76 1.69 1.69 1.69h2.9c.36 0 .65.29.65.65s-.29.65-.65.65h-2.9c-1.65 0-2.99-1.34-2.99-2.99zm3.87-.67c-.36 0-.65.29-.65.65s.29.65.65.65h6.31c.36 0 .65-.29.65-.65s-.29-.65-.65-.65zm-.65 3.24c0-.36.29-.65.65-.65h6.31c.36 0 .65.29.65.65s-.29.65-.65.65H8.84c-.36 0-.65-.29-.65-.65m13.35 7.03c.58.73.58 1.74-.01 2.46-.82 1.01-2.23 2.28-4.19 2.28s-3.37-1.27-4.19-2.28c-.58-.73-.59-1.73-.01-2.45.81-1.01 2.21-2.28 4.2-2.28s3.39 1.26 4.2 2.27m-1.02 1.64c-.73.9-1.81 1.8-3.18 1.8s-2.45-.9-3.17-1.8a.624.624 0 0 1-.01-.82c.71-.89 1.78-1.79 3.18-1.79s2.47.89 3.19 1.78c.19.25.19.58-.01.83m-3.15.62c.55 0 1-.45 1-1s-.45-1-1-1-1 .45-1 1 .45 1 1 1"/></svg>
